packages/tokens/icons/clipboard2/size16Px.svg

<svg viewBox="0 0 16 16" fill="none" xmlns="http://www.w3.org/2000/svg" width="1em" height="1em"><path d="M10 2.5C10.7187 2.5 11.6679 2.5 12.5001 2.5C13.0524 2.5 13.5 2.94772 13.5 3.5L13.5 13.5C13.5 14.0523 13.0523 14.5 12.5 14.5L3.5 14.5C2.94771 14.5 2.5 14.0523 2.5 13.5L2.5 3.5C2.5 2.94772 2.94773 2.5 3.50002 2.5C3.95056 2.5 4.38202 2.5 5 2.5" stroke="currentColor"/><path d="M5.5 2C5.5 1.72386 5.72386 1.5 6 1.5L10 1.5C10.2761 1.5 10.5 1.72386 10.5 2V3C10.5 3.27614 10.2761 3.5 10 3.5L6 3.5C5.72386 3.5 5.5 3.27614 5.5 3V2Z" stroke="currentColor"/><path d="M6.5 6.5L7.5 7.5L9.5 5.5" stroke="currentColor" stroke-linecap="round" stroke-linejoin="round"/><line x1="5.5" y1="9.5" x2="10.5" y2="9.5" stroke="currentColor" stroke-linecap="round"/><line x1="5.5" y1="11.5" x2="10.5" y2="11.5" stroke="currentColor" stroke-linecap="round"/></svg>

<svg xmlns="http://www.w3.org/2000/svg" fill="none" viewBox="0 0 16 16" width="1em" height="1em"><path stroke="currentColor" d="M10 2.5h2.5a1 1 0 0 1 1 1v10a1 1 0 0 1-1 1h-9a1 1 0 0 1-1-1v-10a1 1 0 0 1 1-1H5"/><path stroke="currentColor" d="M5.5 2a.5.5 0 0 1 .5-.5h4a.5.5 0 0 1 .5.5v1a.5.5 0 0 1-.5.5H6a.5.5 0 0 1-.5-.5V2Z"/><path stroke="currentColor" stroke-linecap="round" stroke-linejoin="round" d="m6.5 6.5 1 1 2-2"/><path stroke="currentColor" stroke-linecap="round" d="M5.5 9.5h5m-5 2h5"/></svg>
